X:1
T: Auchindoun Castle
C:Alexander Walker
R:Reel
I:speed 232
Q:232
K:Bm
M:4/4
L:1/8
|:B2Bc BA FB|AF DF EC A,A|B2 Bc BA FD|ED FD B,1/2B,1/2B, B,2|
B2Bc BA FB|AF DF EC A,A|B2Bc BA FD|ED FD B,1/2B,1/2B, B,a|
ba fb af eg|fd ef ec Ac|BA FB AF DF|ED FD B,1/2B,1/2B, B,a|
ba fb af eg|fd ef ec Ac|BF Bc dc de|fd ec B1/2B1/2BB2:|
